X:1
T:Northern Lass [2], A
T:Northern Lass [2], A
T:James Oswald
C:James Oswald
L:1/8
M:4/4
K:D
V:1 treble 
V:1
 A2 |{G} F2 (ED) (EF) A2 |{de} f2 e>d B3 A | (d>e d)B (A<F) (ED) | B4 z2 d2 | (A>B A)F (GF) (BA) | %6
 (dB) (AF) E3 A | (Bd) (cB) (A<F) (TE>D) | D6 || A2 |{G} F2 (ED) (E<F) A>B | AF ED E<F d>e | %12
{de} f2 F2{Bc} d2 Tc>B | B6 A3/2B/8c/4 | (dA) (Bd) F2{FG} A2 | BA GF E2 A2 | %16
 (B3/2c/8d/4) (cB) (A<F) TE>D | D6 || %18

